X: 11385
T: Early Evening
R: reel
M: 4/4
K: Dmajor
|:!slide!B2F2E2D2|!slide!F6A2|A!slide!BF2E2D2|E2F2A2ed|B2F2E2D2|!slide!F6A2|Bce2 dcB2|
A2B2~E2D2|!slide!B2F2E2D2|{FG}F6A2|A!slide!BF2E2D2|E2F2A2ed|B2F2E2D2|!slide!F6A2
Bce2 dcB2|A2B2E2F2|A!slide!B f2e2f2|!slide!a6 d2|f2e2c2de|B2A2G2A2|A!slide!Bf2e2f2
!slide!a6f2|Bce2 dcB2|A2B2E2D2|A!slide!B f2e2f2|!slide!a6 d2|f2e2c2de
B2A2G2A2|A!slide!Bf2e2f2|d6A2|Bce2 dcB2|A2B2~E2D2:|!slide!B2F2E2D2|!slide!F6||

